X: 10
T:Lou Calissoun
R:---
O:Val Varaita, Italie
M:6/8
L:1/8
K:G
B|:d2c B2d|cBA G2B|d2d cBA| d2B G2d|d2c B2d|cBA G2B|"1)"d2d cBA|G3 G3|
c2c cBA|B2B BAG|A2A cBA|B2G G3|c3 {/d}cBA |B2B BAG|A2A cBA|["n bbois" "2)" G3 G2B :|["bbin" d3 g3|g3

%%footer $D   Galouvielle-MBe 2006 \n--- (Val Varaita, Italie)
